X:7022
T:Green Ship, The
R:Reel
C:Trad.
O:England
Z:Paul Hardy's Session Tunebook 2015 (see www.paulhardy.net). Creative Commons cc by-nc-sa licenced.
M:4/4
L:1/8
Q:1/4=150
K:Em
zB|"Em"B2e2 fgfe|B2e2 g3f|B2Bc "G"d2d2|"D7"cBce "G"d4|
"Em"B2e2 "Bm"fgfe|"Em"B2e2 g3f|"Em"gbag "D"fagf|"Em"g2e2 e2:|
|:dc|"G"B2G2 G3D|B2G2 BdcB|"Am"c2A2 A3B|c2A2 "C"cedc|
"G"B2G2 G3D|B2G2 "Em"g3f|gbag "D"fagf|"Em"g2e2 e2:|

